!!!COM: Palestrina, Giovanni Perluigi da
!!!OPR: In festis Apostolorum (II)
!!!OTL: Gloria
**kern	**kern	**kern	**kern	**kern
*Ibass	*Itenor	*Itenor	*Icalto	*Icant
!Bassus	!Tenor 2	!Tenor 1	!Altus	!Cantus
*clefF4	*clefGv2	*clefGv2	*clefG2	*clefG2
*k[]	*k[]	*k[]	*k[]	*k[]
*D:dor	*D:dor	*D:dor	*D:dor	*D:dor
*M4/2	*M4/2	*M4/2	*M4/2	*M4/2
=1	=1	=1	=1	=1
0r	0r	1G	0r	0r
.	.	1A	.	.
=2	=2	=2	=2	=2
0r	0r	2.c	0r	1g
.	.	4B	.	.
.	.	4A	.	1a
.	.	4G	.	.
.	.	2F	.	.
=3	=3	=3	=3	=3
0r	0r	2.A	1c	2.cc
.	.	4G	.	4b
.	.	4F	1d	4a
.	.	4E	.	4g
.	.	[2D	.	[2f
=4	=4	=4	=4	=4
0r	1r	2D]	1f	4f]
.	.	.	.	4e
.	.	2F	.	2.d
.	1G	1E	1g	.
.	.	.	.	4c#
.	.	.	.	4c#
.	.	.	.	8B
.	.	.	.	8c#
=5	=5	=5	=5	=5
0r	1A	4D	1f	2d
.	.	4E	.	.
.	.	4F	.	1a
.	.	4G	.	.
.	1c	2A	1e	.
.	.	2A	.	2a
=6	=6	=6	=6	=6
0r	1d	4D	1.f	1.a
.	.	4E	.	.
.	.	4F	.	.
.	.	4G	.	.
.	1c	4A	.	.
.	.	4B	.	.
.	.	2c	2e	4g
.	.	.	.	4f
=7	=7	=7	=7	=7
1r	1B	1.G	1d	4g
.	.	.	.	4a
.	.	.	.	2.g
1C	1c	.	1e	.
.	.	.	.	4f
.	.	2A	.	2e
=8	=8	=8	=8	=8
1D	1A	2.F	1r	2d
.	.	.	.	1a
.	.	4G	.	.
2.F	1A	4A	1c	.
.	.	4B	.	.
.	.	2c	.	2f
4E	.	.	.	.
=9	=9	=9	=9	=9
4D	2r	2.F	1d	1.f
4C	.	.	.	.
1BB-	1d	.	.	.
.	.	4E	.	.
.	.	2D	1f	.
2AA	2c	2A	.	2a
=10	=10	=10	=10	=10
0GG	2.B-	1D	2.g	0b-
.	4A	.	4f	.
.	2G	2r	2e	.
.	2F	2D	2d	.
=11	=11	=11	=11	=11
0AA	2E	1A	2c#	[0a
.	2D	.	1d	.
.	1E	1A	.	.
.	.	.	2c#	.
=12	=12	=12	=12	=12
[0D	[0D	[0F#	[0d	1a_
.	.	.	.	1a_
=13	=13	=13	=13	=13
0D]	0D]	0F#]	0d]	0a]
!! Benedicimus te
*Ibass	*Itenor	*Itenor	*Icalto	*Icant
!Bassus	!Tenor 2	!Tenor 1	!Altus	!Cantus
*clefF4	*clefGv2	*clefGv2	*clefG2	*clefG2
*k[]	*k[]	*k[]	*k[]	*k[]
*D:dor	*D:dor	*D:dor	*D:dor	*D:dor
*M4/2	*M4/2	*M4/2	*M4/2	*M4/2
=14	=14	=14	=14	=14
0r	0r	0r	2r	1a
.	.	.	2d	.
.	.	.	2A	1cc
.	.	.	[2c	.
=15	=15	=15	=15	=15
0r	0r	0r	2c]	1dd
.	.	.	2B	.
.	.	.	4A	2cc
.	.	.	4B	.
.	.	.	4c	[2cc
.	.	.	4d	.
=16	=16	=16	=16	=16
1r	1r	0r	4e	2cc]
.	.	.	4f	.
.	.	.	4g	2b
.	.	.	4e	.
1D	1A	.	1f	1a
=17	=17	=17	=17	=17
2AA	1c	1E	1e	0r
1C	.	.	.	.
.	1d	1G	2r	.
2BB	.	.	2d	.
=18	=18	=18	=18	=18
4AA	2c	1A	2f	0r
4BB	.	.	.	.
4C	1c	.	1e	.
4D	.	.	.	.
4E	.	2G	.	.
4F	.	.	.	.
2G	2B	[2G	2d	.
=19	=19	=19	=19	=19
1D	0A	2G]	1d	1a
.	.	2F	.	.
1AA	.	2E	1e	1cc
.	.	[2A	.	.
=20	=20	=20	=20	=20
1D	2r	2A]	1f	1dd
.	2A	2F	.	.
2AA	1c	2A	1e	2cc
2C	.	2G	.	[2cc
=21	=21	=21	=21	=21
2GG	1.d	4G	1g	2cc]
.	.	4F	.	.
2GG	.	4D	.	2b
.	.	4E	.	.
2.AA	.	4F	2f	2a
.	.	4G	.	.
.	2c	2A	2e	[2cc
4GG	.	.	.	.
=22	=22	=22	=22	=22
4AA	1c	[0E	0e	4cc]
4BB	.	.	.	4b
4C	.	.	.	1a
4D	.	.	.	.
1E	1B	.	.	.
.	.	.	.	2g#
=23	=23	=23	=23	=23
[0AA	[0A	1E_	[0c#	[0a
.	.	1E_	.	.
=24	=24	=24	=24	=24
0AA]	0A]	0E]	0c#]	0a]
!! Glorificamus te
*Ibass	*Itenor	*Itenor	*Icalto	*Icant
!Bassus	!Tenor 2	!Tenor 1	!Altus	!Cantus
*clefF4	*clefGv2	*clefGv2	*clefG2	*clefG2
*k[]	*k[]	*k[]	*k[]	*k[]
*D:dor	*D:dor	*D:dor	*D:dor	*D:dor
*M4/2	*M4/2	*M4/2	*M4/2	*M4/2
=25	=25	=25	=25	=25
0r	1r	0r	1d	0r
.	1A	.	2e	.
.	.	.	2f	.
=26	=26	=26	=26	=26
1r	2B	0r	1g	0r
.	2c	.	.	.
1D	1d	.	1f	.
=27	=27	=27	=27	=27
2E	1c	0r	1e	0r
2F	.	.	.	.
1G	1B	.	2d	.
.	.	.	[2e	.
=28	=28	=28	=28	=28
1F	1A	0r	4e]	1a
.	.	.	4d	.
.	.	.	4d	.
.	.	.	8e	.
.	.	.	8f	.
1E	2r	.	1g	2b
.	2G	.	.	2cc
=29	=29	=29	=29	=29
1D	2A	1r	2f	1dd
.	2B	.	2d	.
1AA	2c	1A	2e	1cc
.	2A	.	2f	.
=30	=30	=30	=30	=30
1E	1G	2B	1g	1b
.	.	2c	.	.
2F	2r	1d	1f	2a
2G	2B	.	.	[2b
=31	=31	=31	=31	=31
1A	4c	1c	[0e	4b]
.	4d	.	.	4a
.	1e	.	.	1a
1E	.	1B	.	.
.	2B	.	.	2g#
=32	=32	=32	=32	=32
[0AA	[0c#	[0A	1e_	[0a
.	.	.	1e_	.
=33	=33	=33	=33	=33
0AA]	0c#]	0A]	0e]	0a]
*	*	*	*	*-
!! Domine Deus Rex
*Itenor	*Itenor	*Icalto	*Icant
!Tenor 2	!Tenor 1	!Altus	!Cantus
*clefGv2	*clefGv2	*clefG2	*clefG2
*k[]	*k[]	*k[]	*k[]
*D:dor	*D:dor	*D:dor	*D:dor
*M4/2	*M4/2	*M4/2	*M4/2
=34	=34	=34	=34
0r	1r	1e	0r
.	1A	2e	.
.	.	2e	.
=35	=35	=35	=35
0r	2A	1.f	1r
.	2A	.	.
.	1B-	.	1d
.	.	4e	.
.	.	4d	.
=36	=36	=36	=36
2r	1A	1e	1c
2A	.	.	.
2A	1D	1d	1f
2A	.	.	.
=37	=37	=37	=37
1B-	2r	1d	1g
.	1d	.	.
1A	.	2e	1a
.	2c#	2e	.
=38	=38	=38	=38
2D	1d	1f	[0a
2.d	.	.	.
.	1A	1e	.
4c#	.	.	.
2c#	.	.	.
=39	=39	=39	=39
1d	1D	2r	0a]
.	.	2.f	.
1A	2r	.	.
.	.	4e	.
.	[2F	2c	.
=40	=40	=40	=40
1r	4F]	2d	0r
.	4E	.	.
.	2C	2e	.
2r	2D	2f	.
[2c	2E	2e	.
=41	=41	=41	=41
4c]	2F	2A	0r
4B	.	.	.
2G	2E	2e	.
2A	1D	1f	.
2B	.	.	.
=42	=42	=42	=42
1c	1C	1e	0cc
2A	2r	1e	.
[2e	[2c	.	.
=43	=43	=43	=43
4e]	4c]	1r	1g
4d	4B	.	.
2B	2G	.	.
2c	2A	2r	1f
2d	2B-	[2f	.
=44	=44	=44	=44
1B-	1G	2f]	1g
.	.	2e	.
2c	2.F	1f	1a
[2d	.	.	.
.	4G	.	.
=45	=45	=45	=45
2d]	1A	2e	0a
2c#	.	2e	.
1d	1D	2f	.
.	.	2f	.
=46	=46	=46	=46
2.G	2r	1g	0r
.	1d	.	.
4F	.	.	.
1E	.	2r	.
.	2c#	[2g	.
=47	=47	=47	=47
1D	1d	2g]	1r
.	.	2f	.
1r	1G	2.g	1dd
.	.	4f	.
=48	=48	=48	=48
1r	1A	1e	1cc#
2r	2.B-	1d	1dd
[2d	.	.	.
.	4B-	.	.
=49	=49	=49	=49
2d]	1G	2r	1dd
2B-	.	1g	.
1c	1r	.	1g
.	.	2e	.
=50	=50	=50	=50
2.F	2r	1f	1a
.	1c	.	.
4G	.	.	.
1A	.	2e	1cc
.	2A	[2f	.
=51	=51	=51	=51
0r	1B-	2f]	1dd
.	.	4e	.
.	.	4d	.
.	2A	2e	1cc
.	2A	2f	.
=52	=52	=52	=52
2r	2.G	2g	1b-
1d	.	2g	.
.	4G	.	.
.	1A	1e	[1a
2c#	.	.	.
=53	=53	=53	=53
1d	1r	2.f	1a]
.	.	4e	.
2B	2r	2d	1g
2c	[2c	2e	.
=54	=54	=54	=54
2.G	2c]	1d	0g
.	2B	.	.
4G	.	.	.
1C	1c	1e	.
=55	=55	=55	=55
2F	2A	1.f	[0a
4D	2d	.	.
4E	.	.	.
4F	2.c	.	.
4G	.	.	.
4A	.	4e	.
4B	4B	4d	.
=56	=56	=56	=56
4c	2A	2e	1a_
4A	.	.	.
1d	2D	2f	.
.	1A	1e	1a_
2c#	.	.	.
=57	=57	=57	=57
1.d	1D	1.f	0a]
.	2D	.	.
2d	2D	2f	.
=58	=58	=58	=58
[0c#	[0A	[0e	[0a
=59	=59	=59	=59
0c#]	0A]	0e]	0a]
!! Domine Deus Agnus
*Ibass	*Itenor	*Itenor	*Icalto
!Bassus	!Tenor 2	!Tenor 1	!Altus
*clefF4	*clefGv2	*clefGv2	*clefG2
*k[]	*k[]	*k[]	*k[]
*D:dor	*D:dor	*D:dor	*D:dor
*M4/2	*M4/2	*M4/2	*M4/2
=60	=60	=60	=60
1AA	1A	0r	0r
2BB	1G	.	.
2C	.	.	.
=61	=61	=61	=61
2.D	1F	1A	2r
.	.	.	2A
4F	.	.	.
1E	1G	1G	2B
.	.	.	2c
=62	=62	=62	=62
1D	2A	1F	2.d
.	2A	.	.
.	.	.	4f
1r	2B	[1G	1e
.	[2c	.	.
=63	=63	=63	=63
1r	2c]	1G]	1d
.	2B	.	.
[1F	1c	[1A	2r
.	.	.	2f
=64	=64	=64	=64
1F]	1r	1A]	2.c
.	.	.	4d
2.C	1c	1r	4e
.	.	.	4f
.	.	.	[2e
4D	.	.	.
=65	=65	=65	=65
4E	2.G	0r	4e]
4F	.	.	4d
2.E	.	.	2c
.	4F	.	.
.	2G	.	2B
4D	.	.	.
2C	[2A	.	2A
=66	=66	=66	=66
1BB	2A]	1r	2.d
.	2G	.	.
.	.	.	4e
1AA	1A	1c	2f
.	.	.	[2e
=67	=67	=67	=67
0r	2.E	2.G	4e]
.	.	.	4d
.	.	.	2c
.	4D	4F	.
.	2E	2G	2B
.	2F	[2A	2A
=68	=68	=68	=68
0r	1E	2A]	1B
.	.	2G	.
.	4F	[1A	2A
.	4G	.	.
.	4A	.	[2c
.	4B	.	.
=69	=69	=69	=69
1r	4c	2A]	2c]
.	4A	.	.
.	1d	4G	4B
.	.	4F	4A
1G	.	1E	2B
.	2c#	.	2G
=70	=70	=70	=70
1F#	1d	1D	1A
[1G	1B	1r	2r
.	.	.	2d
=71	=71	=71	=71
2G]	2B	0r	2d
2C	2c	.	2e
2.D	2.A	.	2.f
4E	4G	.	4e
=72	=72	=72	=72
2F	2A	0r	4d
.	.	.	4c
1G	1B	.	2.e
.	.	.	4d
2F	2A	.	[2d
=73	=73	=73	=73
1E	1G	0r	2d]
.	.	.	2c#
[1D	[1A	.	2d
.	.	.	[2f
=74	=74	=74	=74
2D]	1A]	1d	2f]
4C	.	.	4e
4BB	.	.	4d
1AA	2r	1c#	1e
.	[2A	.	.
=75	=75	=75	=75
1D	2A]	1.d	1.f
.	2A	.	.
2D	2B	.	.
2E	[2c	2G	4e
.	.	.	4d
=76	=76	=76	=76
2.F	4c]	2.A	1c
.	4B	.	.
.	4A	.	.
4G	4G	4B	.
4A	4F	2c	1r
4G	4E	.	.
4F	4D	[2d	.
4E	4E	.	.
=77	=77	=77	=77
2D	4F	2d]	0r
.	4G	.	.
2AA	1A	2c	.
1E	.	1B	.
.	2G#	.	.
=78	=78	=78	=78
2AA	1A	2A	0r
2A	.	2c	.
2F	1d	2A	.
2G	.	2B	.
=79	=79	=79	=79
1E	1c#	1G	1g
2.D	[1d	1A	1f#
4C	.	.	.
=80	=80	=80	=80
2BB	2d]	4G	1.g
.	.	4F	.
2.C	2G	4E	.
.	.	4D	.
.	2G	2.E	.
4BB	.	.	.
2AA	2A	.	2c
.	.	4C	.
=81	=81	=81	=81
1GG	2.B	2G	2.d
.	.	2.d	.
.	4c	.	4e
1r	2d	.	2f
.	.	4d	.
.	[2e	2c	[2g
=82	=82	=82	=82
0r	4e]	1d	2g]
.	4d	.	.
.	1d	.	2f
.	.	1A	1e
.	2c#	.	.
=83	=83	=83	=83
2r	1d	2r	2d
2.D	.	2.A	2.f
.	1A	.	.
4D	.	4D	4f
2C#	.	2E	2e
=84	=84	=84	=84
0D	2A	0F	0d
.	2A	.	.
.	1A	.	.
=85	=85	=85	=85
[0AA	[0A	[0E	[0c#
=86	=86	=86	=86
0AA]	0A]	0E]	0c#]
*-	*-	*-	*-
!! Qui tollis
**kern	**kern	**kern	**kern	**kern
*Ibass	*Itenor	*Itenor	*Icalto	*Icant
!Bassus	!Tenor 2	!Tenor 1	!Altus	!Cantus
*clefF4	*clefGv2	*clefGv2	*clefG2	*clefG2
*k[]	*k[]	*k[]	*k[]	*k[]
*D:dor	*D:dor	*D:dor	*D:dor	*D:dor
*M4/2	*M4/2	*M4/2	*M4/2	*M4/2
=87	=87	=87	=87	=87
0r	0r	1A	0r	0r
.	.	1B	.	.
=88	=88	=88	=88	=88
0r	0r	2.c	1e	1r
.	.	4B-	.	.
.	.	2A	1f	1a
.	.	2d	.	.
=89	=89	=89	=89	=89
0r	0r	1G	2.g	1b
.	.	.	4f	.
.	.	2.A	2e	[1cc
.	.	.	[2f	.
.	.	4G	.	.
=90	=90	=90	=90	=90
0r	0r	4F	4f]	1cc]
.	.	4G	4e	.
.	.	4A	4c	.
.	.	4B	4d	.
.	.	1c	4e	2.cc
.	.	.	4f	.
.	.	.	[2g	.
.	.	.	.	4b-
=91	=91	=91	=91	=91
0r	0r	2d	4g]	2a
.	.	.	4f	.
.	.	2B-	1f	2b-
.	.	1c	.	1g
.	.	.	2e	.
=92	=92	=92	=92	=92
1D	0r	2r	2d	2f
.	.	2d	2f	1a
1E	.	2c	2.e	.
.	.	2B	.	2g
.	.	.	4d	.
=93	=93	=93	=93	=93
2.F	1A	2A	2c	2.a
.	.	2c	2A	.
4E	.	.	.	4g
2D	1B	1d	2r	2f#
2G	.	.	2d	[2g
=94	=94	=94	=94	=94
1C	0c	2c	1e	2g]
.	.	2G	.	2cc
1F	.	2.A	2f	2.cc
.	.	.	[2f	.
.	.	4G	.	4b
=95	=95	=95	=95	=95
2F	2.c	2F	4f]	2a
.	.	.	4c	.
2C	.	2E	2e	2.g
.	4B-	.	.	.
2D	2A	1F	2d	.
.	.	.	.	4f
2BB-	2B-	.	2d	[2f
=96	=96	=96	=96	=96
1C	1G	1r	1c	2f]
.	.	.	.	2e
1D	1F	2r	1A	1f
.	.	[2A	.	.
=97	=97	=97	=97	=97
2.AA	1A	2A]	1c	2r
.	.	2.E	.	1e
4BB	.	.	.	.
1C	1G	.	1e	.
.	.	4D	.	.
.	.	4E	.	[2g
.	.	4F	.	.
=98	=98	=98	=98	=98
1GG	1B-	2G	1d	2g]
.	.	2G	.	2g
1D	[1A	4F	1f	1a
.	.	4D	.	.
.	.	[2d	.	.
=99	=99	=99	=99	=99
1AA	0A]	2d]	0e	0a
.	.	2c#	.	.
2r	.	2r	.	.
[2A	.	[2c#	.	.
=100	=100	=100	=100	=100
2A]	0r	2c#]	1.e	1r
4G#	.	4B	.	.
4F#	.	4A	.	.
2G#	.	2B	.	2r
2A	.	2c#	2e	[2a
=101	=101	=101	=101	=101
2.D	2r	2.d	1.f	2a]
.	1d	.	.	2a
4E	.	8c	.	.
.	.	8B	.	.
4F	.	[1A	.	1a
4G	.	.	.	.
[2A	4c#	.	4e	.
.	4B	.	4d	.
=102	=102	=102	=102	=102
2A]	2c#	1A]	2e	2r
2D	2d	.	2f	1dd
1r	1G	1B	2g	.
.	.	.	2g	4cc
.	.	.	.	4b
=103	=103	=103	=103	=103
2r	1A	0r	2e	2cc
2D	.	.	1f	2dd
1C	[1c	.	.	1g
.	.	.	2e	.
=104	=104	=104	=104	=104
2F	2c]	0r	1f	1a
2D	1d	.	.	.
1A	.	.	2.e	1cc
.	[2c	.	.	.
.	.	.	4f#	.
=105	=105	=105	=105	=105
2.G	2c]	2r	1g	1.dd
.	1B-	2G	.	.
4F	.	.	.	.
4D	.	1A	2f	.
4E	.	.	.	.
2F	[2A	.	4c	[2cc
.	.	.	4d	.
=106	=106	=106	=106	=106
1E	2A]	2.B	1e	2cc]
.	2G#	.	.	2.b
.	.	4B	.	.
1AA	1A	1c	1c	.
.	.	.	.	4a
.	.	.	.	2a
=107	=107	=107	=107	=107
0E	2B	2B	[0e	2g#
.	2c	2.e	.	1a
.	1B	.	.	.
.	.	4d	.	.
.	.	2B	.	2g#
=108	=108	=108	=108	=108
[0AA	[0A	[0c#	1e_	[0a
.	.	.	1e_	.
=109	=109	=109	=109	=109
0AA]	0A]	0c#]	0e]	0a]
!! Quoniam
*Ibass	*Itenor	*Itenor	*Icalto	*Icant
!Bassus	!Tenor 2	!Tenor 1	!Altus	!Cantus
*clefF4	*clefGv2	*clefGv2	*clefG2	*clefG2
*k[]	*k[]	*k[]	*k[]	*k[]
*D:dor	*D:dor	*D:dor	*D:dor	*D:dor
*M4/2	*M4/2	*M4/2	*M4/2	*M4/2
=110	=110	=110	=110	=110
0r	0r	0r	1.e	0r
.	.	.	2d	.
=111	=111	=111	=111	=111
0r	1.A	0r	1c	0r
.	.	.	1e	.
.	2G	.	.	.
=112	=112	=112	=112	=112
0r	1F	0r	1.f	1r
.	1A	.	.	[1a
.	.	.	4e	.
.	.	.	4d	.
=113	=113	=113	=113	=113
0r	2.c	0r	2.e	2a]
.	.	.	.	2g
.	4B-	.	4d	.
.	2A	.	2c	1f
.	2B-	.	2d	.
=114	=114	=114	=114	=114
0r	2A	1r	2e	1a
.	2.F	.	1f	.
.	.	[1A	.	[1cc
.	4G	.	.	.
.	4A	.	4e	.
.	4B	.	4d	.
=115	=115	=115	=115	=115
0r	4c	2A]	4e	2cc]
.	4A	.	4f	.
.	2.d	2G	2g	2b-
.	.	1F	2r	[1a
.	4c	.	.	.
.	4A	.	[2c	.
.	4B	.	.	.
=116	=116	=116	=116	=116
0r	2c	1A	4c]	1a]
.	.	.	4B	.
.	2F	.	4c	.
.	.	.	4d	.
.	1C	2.c	2e	2g
.	.	.	2e	4c
.	.	4B-	.	4d
=117	=117	=117	=117	=117
0r	0r	2A	2c	4e
.	.	.	.	4f
.	.	2G	2.e	2g
.	.	1B-	.	2f
.	.	.	4d	.
.	.	.	[2d	2d
=118	=118	=118	=118	=118
2r	0r	1A	2d]	1e
1A	.	.	2c#	.
.	.	2D	2d	2f
2G	.	[2d	2B-	2g
=119	=119	=119	=119	=119
2F	2r	2d]	1A	1a
2D	1A	2d	.	.
2F	.	1c	2r	1r
2E	2G	.	2e	.
=120	=120	=120	=120	=120
1D	2F	1d	2f	2r
.	2A	.	1f	1a
1C	2.c	1r	.	.
.	.	.	2e	2g
.	4B-	.	.	.
=121	=121	=121	=121	=121
1D	4A	2r	1d	2f
.	4G	.	.	.
.	1F	1A	.	2a
2AA	.	.	1c	1cc
2C	2E	[2G	.	.
=122	=122	=122	=122	=122
1D	2D	4G]	1f	2b-
.	.	4F	.	.
.	2F	2A	.	1a
1C	1G	2.c	1e	.
.	.	.	.	[2g
.	.	4B-	.	.
=123	=123	=123	=123	=123
1D	2r	1A	2.d	2g]
.	2.d	.	.	2f
.	.	.	4c	.
[1GG	.	1G	4B-	2.b-
.	4c	.	4A	.
.	[2B-	.	4G	.
.	.	.	4F	4a
=124	=124	=124	=124	=124
0GG]	4B-]	0B-	1G	0g
.	4A	.	.	.
.	4G	.	.	.
.	4F#	.	.	.
.	1G	.	1d	.
=125	=125	=125	=125	=125
[0D	[0F#	[0A	[0d	[0a
=126	=126	=126	=126	=126
0D]	0F#]	0A]	0d]	0a]
!! Tu solus altissimus
*Ibass	*Itenor	*Itenor	*Icalto	*Icant
!Bassus	!Tenor 2	!Tenor 1	!Altus	!Cantus
*clefF4	*clefGv2	*clefGv2	*clefG2	*clefG2
*k[]	*k[]	*k[]	*k[]	*k[]
*D:dor	*D:dor	*D:dor	*D:dor	*D:dor
*M4/2	*M4/2	*M4/2	*M4/2	*M4/2
=127	=127	=127	=127	=127
1r	0r	0r	1d	0r
1D	.	.	[1f	.
=128	=128	=128	=128	=128
2.F	0r	1A	1f]	1r
4G	.	.	.	.
1A	.	1c#	1e	[1a
=129	=129	=129	=129	=129
2D	0r	1d	1f	1a]
2D	.	.	.	.
2.A	.	1e	[1a	1cc#
4G	.	.	.	.
=130	=130	=130	=130	=130
4F	1D	0f	2a]	1dd
4E	.	.	.	.
4D	.	.	2a	.
4C	.	.	.	.
2D	2.F	.	[1a	1dd
2D	.	.	.	.
.	4G	.	.	.
=131	=131	=131	=131	=131
1AA	1A	1e	2a]	1cc#
.	.	.	2e	.
[1D	2A	1d	2.f	[1dd
.	2D	.	.	.
.	.	.	4e	.
=132	=132	=132	=132	=132
1D]	2.d	2r	4f	2dd]
.	.	.	4g	.
.	.	2A	1a	2dd
.	4c	.	.	.
1r	[1B-	[1d	.	1dd
.	.	.	4g	.
.	.	.	4f	.
=133	=133	=133	=133	=133
0r	2B-]	2d]	2g	1dd
.	2B-	2d	2g	.
.	2.A	1e	2a	2.cc
.	.	.	[2e	.
.	4B-	.	.	4b-
=134	=134	=134	=134	=134
0r	2c	0r	2e]	1a
.	2d	.	2f	.
.	1B-	.	4g	1b-
.	.	.	4f	.
.	.	.	[2f	.
=135	=135	=135	=135	=135
0r	1c	0r	4f]	1g
.	.	.	4e	.
.	.	.	2.e	.
.	1d	.	.	1f
.	.	.	4d	.
.	.	.	[2d	.
=136	=136	=136	=136	=136
1r	1A	1r	4d]	1e
.	.	.	4c	.
.	.	.	2c	.
2.D	2.F	1d	[1A	[1f
4E	4G	.	.	.
=137	=137	=137	=137	=137
0F	4A	2.c	1A]	0f]
.	4B	.	.	.
.	1c	.	.	.
.	.	4B-	.	.
.	.	1A	2r	.
.	[2F	.	2f	.
=138	=138	=138	=138	=138
1BB-	4F]	1B-	2f	1d
.	4D	.	.	.
.	2d	.	1f	.
1C	2.c	1A	.	1r
.	.	.	[2e	.
.	4B-	.	.	.
=139	=139	=139	=139	=139
1D	1A	1F	4e]	1.a
.	.	.	4d	.
.	.	.	1d	.
1AA	[1A	1E	.	.
.	.	.	2c#	2a
=140	=140	=140	=140	=140
2D	2A]	0F	[0d	4f
.	.	.	.	4e
1BB-	1B-	.	.	4d
.	.	.	.	4e
.	.	.	.	4f
.	.	.	.	4g
2FF	2A	.	.	4a
.	.	.	.	8g
.	.	.	.	8a
=141	=141	=141	=141	=141
0GG	2.G	[0D	0d]	2.b-
.	4A	.	.	4a
.	1B-	.	.	1g
=142	=142	=142	=142	=142
[0D	[0A	1D_	[0d	[0f#
.	.	1D_	.	.
=143	=143	=143	=143	=143
0D]	0A]	0D]	0d]	0f#]
!! Amen
*Ibass	*Itenor	*Itenor	*Icalto	*Icant
!Bassus	!Tenor 2	!Tenor 1	!Altus	!Cantus
*clefF4	*clefGv2	*clefGv2	*clefG2	*clefG2
*k[]	*k[]	*k[]	*k[]	*k[]
*D:dor	*D:dor	*D:dor	*D:dor	*D:dor
*M4/2	*M4/2	*M4/2	*M4/2	*M4/2
=144	=144	=144	=144	=144
0r	0r	0r	1c	1r
.	.	.	1d	1f
=145	=145	=145	=145	=145
0r	0r	1r	4G	1g
.	.	.	4A	.
.	.	.	4B	.
.	.	.	4G	.
.	.	1F	4A	2.c
.	.	.	4B	.
.	.	.	[2c	.
.	.	.	.	4d
=146	=146	=146	=146	=146
0r	0r	1G	2c]	4e
.	.	.	.	4f
.	.	.	2B	2.g
.	.	2.C	4e	.
.	.	.	4d	4f
.	.	.	4c	[2e
.	.	4D	4B	.
=147	=147	=147	=147	=147
0r	0r	4E	2c	2e]
.	.	4F	.	.
.	.	2.G	4B	4d
.	.	.	4A	4c
.	.	.	2B	2d
.	.	4F	.	.
.	.	2E	[2c	2e
=148	=148	=148	=148	=148
1r	0r	2D	2c]	2f
.	.	1G	2B	2d
1C	.	.	2.c	1e
.	.	[2A	.	.
.	.	.	4B	.
=149	=149	=149	=149	=149
1D	1F	2A]	1A	1a
.	.	1D	.	.
1GG	1G	.	1d	1b
.	.	2G	.	.
=150	=150	=150	=150	=150
2.AA	1C	2E	1c	1.cc
.	.	2A	.	.
4BB	.	.	.	.
4C	1E	1G	2r	.
4D	.	.	.	.
[2E	.	.	2G	2b
=151	=151	=151	=151	=151
4E]	1F	2F	2.A	1a
4D	.	.	.	.
1D	.	2D	.	.
.	.	.	4B	.
.	1G	1E	4c	2g
.	.	.	4d	.
2C	.	.	[2e	2e
=152	=152	=152	=152	=152
1D	1F	1.A	4e]	2.f
.	.	.	4d	.
.	.	.	1d	.
.	.	.	.	4g
1AA	1E	.	.	[1a
.	.	2E	2c#	.
=153	=153	=153	=153	=153
1D	0D	2F#	2.d	2a]
.	.	2A	.	2f#
.	.	.	4c	.
1GG	.	1G	1B-	1g
=154	=154	=154	=154	=154
[0D	[0D	[0F#	[0A	[0a
=155	=155	=155	=155	=155
0D]	0D]	0F#]	0A]	0a]
==	==	==	==	==
*-	*-	*-	*-	*-
!!!CDT: 1525/^1526/-1594/2/2
!!!OCY: Italia
!!!AGN: Mass (Paraphrase)
!!!AST: renaissance, vocal
!!!ASW: Gregorian Mass
!!!PWK: Masses, Book Mantuan II
!!!RNB: Cadence finals: A
!!!YOR: Le Opere Complete, v. 19, p. 1
!!!YOO: Rome, Italy: Fratelli Scalera
!!!END: 1992//
!!!EED: John Miller
!!!YEC: Copyright 2000, John Miller
!!!YEN: United States of America
!!!YEM: Rights to all derivative electronic formats reserved.
!!!YEM: Refer to licensing agreement for further details.
!!!YEM: This file must be accompanied by the licensing agreement.
!!!YEM: A copy of the licensing agreement may be found at http://www.music-cog.ohio-state.edu/HumdrumDatabases/Palestrina/license.txt
!!!EMD: converted to Humdrum by Bret Aarden
